img/clients/7.svg

<?xml version="1.0" encoding="UTF-8"?>
<svg id="SVGDoc" width="138" height="61" xmlns="http://www.w3.org/2000/svg" version="1.1" xmlns:xlink="http://www.w3.org/1999/xlink" xmlns:avocode="https://avocode.com/" viewBox="0 0 138 61"><defs></defs><desc>Generated with Avocode.</desc><g><g><title>logo</title><g><title>Background</title></g><g><title>Group</title><g><title>Vector</title><path d="M26.53923,4.67v0l0.21467,1.525c-6.85399,13.8622 1.886,12.7337 1.886,12.7337v0l1.104,-0.1982v0l0.16867,0.3355c16.23803,-1.83 25.11603,6.5728 25.11603,6.5728c1.1806,-19.88605 -28.48937,-20.9688 -28.48937,-20.9688v0z" fill="#f8b829" fill-opacity="1"></path></g><g><title>Vector</title><path d="M16.3497,51.4996c-0.69,4.575 3.0667,7.2285 3.6647,5.7645c1.656,-2.1502 2.2387,-1.525 3.0667,-4.758c0.3022,-0.4015 0.6523,-0.765 1.0426,-1.0827c0.8382,-0.8642 1.6458,-1.7487 2.4227,-2.6535c2.2915,-2.5782 4.2489,-5.4318 5.8267,-8.4943c1.7504,-3.0921 2.3886,-6.6855 1.8093,-10.187c-0.6272,-1.7712 -1.5216,-3.4373 -2.6527,-4.941c-0.3453,-0.7872 -0.5027,-1.6432 -0.46,-2.501c-0.038,-1.2832 -0.4248,-2.5321 -1.1193,-3.6142c-0.3586,-0.3845 -0.6313,-0.8401 -0.8005,-1.3368c-0.1691,-0.4967 -0.2307,-1.0234 -0.1808,-1.5455c0.1993,-1.159 0.1993,-2.3027 0.368,-3.46172c0.1062,-2.16571 -0.2927,-4.32652 -1.1654,-6.3135c0,0 -1.0733,-1.891 -2.024,-1.41825c-1.6926,-1.06585 -3.6599,-1.62022 -5.6631,-1.59586c-2.0032,0.02436 -3.9563,0.62642 -5.6222,1.73311c0,0 -21.9574,13.95372 -2.16202,40.76322c-0.598,3.477 1.53334,7.0608 3.18932,9.4398" fill="#005d86" fill-opacity="1"></path></g><g><title>Vector</title><path d="M26.4537,20.8904v0l-2.9747,-13.48099v0c0,0 -1.748,-5.185 -6.34801,1.35725l-0.76667,-1.0065c-4.232,5.96275 -9.96666,13.11504 -8.694,20.86204c0.18511,1.4299 0.68162,2.8025 1.45491,4.0219c0.77329,1.2195 1.80474,2.2565 3.02243,3.0388c1.79439,1.2393 3.9668,1.8183 6.14384,1.6374c2.177,-0.1809 4.2227,-1.1104 5.7855,-2.6286c2.392,-1.9825 4.3393,-6.0085 2.3767,-13.8013z" fill="#ffffff" fill-opacity="1"></path></g><g><title>Vector</title><path d="M29.91746,19.10368c0,0 14.19864,-2.196 25.11604,6.57272c0,0 -10.2734,-13.40472 -26.64937,-10.91897c0.01533,0 -1.16533,3.294 1.53333,4.34625z" fill="#f19320" fill-opacity="1"></path></g><g><title>Vector</title><path d="M55.02779,25.68193c0.28856,-3.45904 -0.59094,-6.91501 -2.49934,-9.821c-0.15333,-0.19825 -1.33399,2.36375 -1.34933,2.5925c-0.06273,1.06859 0.19905,2.13126 0.75133,3.05c0.782,1.4335 2.68334,2.60775 3.06667,4.148" fill="#e95253" fill-opacity="1"></path></g><g><title>Vector</title><path d="M1.53,45.05c2.00696,0.75962 4.19688,0.90305 6.28667,0.41175c2.92866,0.3965 4.46203,1.3115 7.95803,1.708c4.278,0 8.5253,-0.4575 12.7726,-0.854c1.38,-0.122 4.4467,-0.28975 5.612,0.793c0.6747,0.62525 0.4754,2.318 0.4907,3.2025c-2.5347,-0.96122 -5.2035,-1.52707 -7.912,-1.6775c-3.0667,0 -6.2407,0.13725 -9.3533,0.10675c-2.1232,0.00622 -4.2426,-0.17752 -6.3327,-0.549c-1.94733,-0.366 -3.864,-0.86925 -5.81133,-1.26575c-1.41067,-0.305 -3.128,-0.549 -3.71067,-1.87575z" fill="#9b5f48" fill-opacity="1"></path></g><g><title>Vector</title><path d="M28.876,47.78925c0,0.488 -0.42933,1.525 -0.828,1.525c-0.39867,0 -0.828,-1.02175 -0.828,-1.525v-1.72325c0,-0.488 0.30667,-0.976 0.70533,-0.976c0.24112,0.03666 0.46287,0.1528 0.6297,0.32978c0.16683,0.17698 0.26906,0.40455 0.2903,0.64622z" fill="#969595" fill-opacity="1"></path></g><g><title>Vector</title><path d="M27.21733,48.03975c0,0.38125 -0.30666,1.17425 -0.62866,1.17425c-0.322,0 -0.62867,-0.793 -0.62867,-1.17425v-1.35725c0,-0.38125 0.23,-0.7625 0.552,-0.7625c0.1844,0.02849 0.3529,0.1204 0.47618,0.25972c0.12328,0.13933 0.19352,0.31725 0.19848,0.50278z" fill="#838383" fill-opacity="1"></path></g><g><title>Vector</title><path d="M12.01,47.78925c0,0.488 0.42933,1.525 0.828,1.525c0.39867,0 0.828,-1.02175 0.828,-1.525v-1.72325c0,-0.488 -0.30667,-0.976 -0.70533,-0.976c-0.24112,0.03666 -0.46287,0.1528 -0.62969,0.32978c-0.16683,0.17698 -0.26906,0.40455 -0.29031,0.64622z" fill="#969595" fill-opacity="1"></path></g><g><title>Vector</title><path d="M13.66,48.03975c0,0.38125 0.30667,1.17425 0.62867,1.17425c0.322,0 0.62866,-0.793 0.62866,-1.17425v-1.35725c0,-0.38125 -0.23,-0.7625 -0.552,-0.7625c-0.1844,0.02849 -0.35291,0.1204 -0.47618,0.25972c-0.12328,0.13933 -0.19351,0.31725 -0.19848,0.50278z" fill="#838383" fill-opacity="1"></path></g><g><title>Vector</title><path d="M29.34658,16.5575c-0.00299,0.8753 0.19085,1.7403 0.56734,2.5315c-2.53,-0.8998 -1.62534,-4.1175 -1.62534,-4.1175c0.72067,-7.68604 -2.77533,-9.86678 -2.51466,-10.26328c1.794,-0.854 2.63733,0.80826 2.97466,1.52501c1.87067,4.65125 1.196,7.35049 0.828,8.21975c-0.20559,0.68152 -0.28355,1.39492 -0.23,2.10452z" fill="#003b55" fill-opacity="1"></path></g><g><title>Vector</title><path d="M26.5395,11.62133c0.6747,3.599 -1.1347,5.64247 -4.72268,5.68827c-2.76,0 -6.77733,-0.5795 -7.16067,-3.93452c-0.322,-2.91275 1.53334,-6.8625 4.508,-7.747c4.12467,-1.2505 6.73135,2.45525 7.39065,5.99325z" fill="#f8b829" fill-opacity="1"></path></g><g><title>Vector</title><path d="M24.3484,11.36357c0.14158,0.42356 0.17148,0.87618 0.08684,1.31453c-0.08465,0.43835 -0.281,0.84775 -0.57028,1.18901c-0.28927,0.34127 -0.66178,0.60297 -1.08186,0.76007c-0.42009,0.15709 -0.87368,0.20431 -1.31737,0.13714c-1.748,0 -4.186,-0.41175 -4.33933,-2.5315c-0.08206,-0.96414 0.14534,-1.92933 0.64952,-2.75685c0.50418,-0.82751 1.25918,-1.47474 2.15648,-1.84865c2.46866,-0.68625 4.002,1.525 4.37,3.67525z" fill="#005d86" fill-opacity="1"></path></g><g><title>Vector</title><path d="M22.99867,10.90263c0,0.56825 -0.22697,1.11324 -0.63099,1.51506c-0.40402,0.40182 -0.95198,0.62756 -1.52334,0.62756c-0.57137,0 -1.11933,-0.22574 -1.52335,-0.62756c-0.40402,-0.40182 -0.63099,-0.94681 -0.63099,-1.51506c0,-0.56826 0.22697,-1.11325 0.63099,-1.51507c0.40402,-0.40182 0.95198,-0.62756 1.52335,-0.62756c0.57136,0 1.11932,0.22574 1.52334,0.62756c0.40402,0.40182 0.63099,0.94681 0.63099,1.51507z" fill="#151410" fill-opacity="1"></path></g><g><title>Vector</title><path d="M21.14733,9.54622c0,0.38125 -0.33733,0 -0.33733,0" fill="#ffffff" fill-opacity="1"></path></g><g><title>Vector</title><path d="M19.93806,9.52992c-0.21467,0 -0.26067,0.22875 -0.29133,0.47275c-0.05782,0.02189 -0.10997,0.05639 -0.15262,0.10096c-0.04265,0.04457 -0.07472,0.09808 -0.09384,0.1566c-0.01912,0.05852 -0.02482,0.12055 -0.01666,0.18154c0.00816,0.06099 0.02995,0.1194 0.06379,0.17091c0,0 1.04266,-0.976 1.11933,-0.915c-0.08703,-0.07036 -0.18801,-0.12168 -0.29634,-0.15058c-0.10833,-0.02891 -0.22157,-0.03476 -0.33233,-0.01717z" fill="#ffffff" fill-opacity="1"></path></g><g><title>Group</title><g><title>Vector</title><path d="M54.1995,44.7161c0.1209,-0.0028 0.2409,0.0202 0.3521,0.0676c0.1111,0.0474 0.2107,0.1179 0.2919,0.2069l1.8094,1.9215c-2.7447,3.477 -8.004,4.2548 -12.02136,2.7755c-1.99701,-0.8121 -3.7016,-2.2039 -4.89141,-3.9939c-1.18982,-1.79 -1.80963,-3.895 -1.77859,-6.0406c-0.16509,-2.17374 0.32052,-4.34747 1.39563,-6.24717c1.0751,-1.89971 2.69159,-3.44038 4.64571,-4.42781c2.01657,-0.93344 4.26552,-1.25339 6.46432,-0.91966c2.1989,0.33373 4.2495,1.30626 5.8943,2.79541l-1.5333,2.074c-0.828,1.1895 -2.1007,-0.122 -2.9593,-0.53375c-1.2739,-0.58402 -2.6945,-0.77524 -4.07869,-0.549c-1.42077,0.29229 -2.70024,1.05425 -3.63014,2.16185c-0.9299,1.1076 -1.45548,2.49563 -1.4912,3.93813c-0.22578,1.3669 -0.09321,2.7686 0.38491,4.0696c0.47812,1.301 1.28561,2.4573 2.34443,3.3572c1.20988,0.8061 2.64999,1.2002 4.10419,1.1232c1.4542,-0.077 2.8441,-0.6209 3.9611,-1.5502c0.2127,-0.1561 0.4719,-0.2366 0.736,-0.2288z" fill="#ffffff" fill-opacity="1"></path></g><g><title>Vector</title><path d="M62.86667,27.62v0v22.4785v0h-4.21667v0v-22.4785v0z" fill="#ffffff" fill-opacity="1"></path></g><g><title>Vector</title><path d="M70.62067,34.56v0v15.555v0h-4.17067v0v-15.555v0z" fill="#ffffff" fill-opacity="1"></path></g><g><title>Vector</title><path d="M71.13268,30.03763c0,3.24825 -5.18268,3.2635 -5.18268,0" fill="#ffffff" fill-opacity="1"></path></g><g><title>Vector</title><path d="M85.5443,38.01738c-0.6594,0.8845 -1.3647,0.3355 -2.1007,0c-0.90727,-0.50949 -1.96857,-0.67729 -2.98999,-0.47275c-2.116,0.47275 -2.72933,2.623 -2.79066,4.575c-0.06134,1.952 0.35266,4.17847 2.28466,4.95627c0.49236,0.1871 1.01746,0.274 1.54421,0.2557c0.52675,-0.0184 1.04445,-0.1416 1.52246,-0.3625c0.75132,-0.3507 1.82462,-1.6775 2.60662,-0.6557l1.196,1.525c-1.0805,1.1383 -2.4675,1.9434 -3.99542,2.3193c-1.52797,0.3758 -3.1324,0.3066 -4.62187,-0.1996c-1.46803,-0.5873 -2.71738,-1.612 -3.57665,-2.9335c-0.85927,-1.3214 -1.28637,-2.875 -1.22268,-4.44747c-0.14315,-1.60541 0.22374,-3.21503 1.04898,-4.6021c0.82523,-1.38708 2.06723,-2.48169 3.55102,-3.12965c1.45935,-0.5597 3.04936,-0.69198 4.58192,-0.38119c1.5326,0.31079 2.9436,1.05165 4.0661,2.13494z" fill="#ffffff" fill-opacity="1"></path></g><g><title>Vector</title><path d="M93.07,27.62v0v12.7642v0h0.69c0.2099,0.01 0.41883,-0.0339 0.60678,-0.1274c0.18794,-0.0934 0.34859,-0.2334 0.46655,-0.4063l3.45,-4.575c0.15892,-0.22338 0.37082,-0.40428 0.6169,-0.52665c0.24607,-0.12237 0.51877,-0.18243 0.79377,-0.17485h3.818v0l-4.462,5.6425c-0.32941,0.4494 -0.74663,0.828 -1.22667,1.1133c0.45165,0.3418 0.82748,0.7727 1.104,1.2657l4.82997,7.4878v0h-3.7566c-0.2785,0.0195 -0.557,-0.0369 -0.8056,-0.1632c-0.2486,-0.1263 -0.45784,-0.3177 -0.60509,-0.5536l-3.52668,-5.7035c-0.10634,-0.1973 -0.27004,-0.3582 -0.46973,-0.4616c-0.19968,-0.1034 -0.42607,-0.1445 -0.6496,-0.1179h-0.874v0v7.015v0h-4.14v0v-22.4785v0z" fill="#ffffff" fill-opacity="1"></path></g><g><title>Vector</title><path d="M109.61599,27.62v0v12.7642v0h0.69001c0.20989,0.01 0.41883,-0.0339 0.60677,-0.1274c0.18795,-0.0934 0.3486,-0.2334 0.46656,-0.4063l3.45,-4.575c0.15891,-0.22338 0.37082,-0.40428 0.61687,-0.52665c0.2461,-0.12237 0.5188,-0.18244 0.7938,-0.17485h3.818v0l-4.4927,5.673c-0.32938,0.4494 -0.7466,0.828 -1.22664,1.1132c0.45165,0.3419 0.82749,0.7728 1.10404,1.2658l4.83,7.4877v0h-3.7414c-0.2784,0.0196 -0.557,-0.0368 -0.8056,-0.1631c-0.2486,-0.1263 -0.45778,-0.3177 -0.60503,-0.5536l-3.51134,-5.7188c-0.10634,-0.1973 -0.27005,-0.3582 -0.46974,-0.4615c-0.19968,-0.1034 -0.42607,-0.1445 -0.6496,-0.118h-0.874v0v7.015v0h-4.18599v0v-22.4937v0z" fill="#ffffff" fill-opacity="1"></path></g><g><title>Vector</title><path d="M128.02934,54.2705c-0.10729,0.2666 -0.29776,0.492 -0.54341,0.643c-0.24564,0.1509 -0.53349,0.2196 -0.82126,0.1957h-3.06667v0l2.91334,-6.3135v0l-6.27134,-14.30446v0h3.66467c0.24822,-0.01128 0.49381,0.05462 0.70265,0.18853c0.20884,0.13391 0.37056,0.3292 0.46268,0.55872l2.97467,7.45725c0.21467,0.58966 0.39867,1.17933 0.55201,1.769c0.184,-0.59475 0.39866,-1.1895 0.62866,-1.78425l2.75996,-7.42675c0.0922,-0.22325 0.2496,-0.41384 0.4519,-0.54708c0.2023,-0.13323 0.4402,-0.20297 0.6828,-0.20017h3.3427v0z" fill="#ffffff" fill-opacity="1"></path></g></g></g></g></g></svg>

<svg width="138" height="61" viewBox="0 0 138 61" fill="none" xmlns="http://www.w3.org/2000/svg">
<path fill-rule="evenodd" clip-rule="evenodd" d="M26.542 4.6665L26.7567 6.1915C19.9027 20.0538 28.6427 18.9253 28.6427 18.9253L29.7467 18.727L29.9153 19.0625C46.1533 17.2325 55.0313 25.6353 55.0313 25.6353C56.212 5.74925 26.542 4.6665 26.542 4.6665Z" fill="#F8B829"/>
<path d="M16.3453 51.4993C15.6553 56.0743 19.412 58.7277 20.01 57.2637C21.666 55.1135 22.2486 55.7387 23.0767 52.5057C23.3789 52.1043 23.729 51.7407 24.1193 51.423C24.9575 50.5588 25.7651 49.6743 26.542 48.7695C28.8335 46.1914 30.7909 43.3377 32.3687 40.2752C34.1191 37.1831 34.7573 33.5898 34.178 30.0883C33.5508 28.317 32.6564 26.6509 31.5253 25.1472C31.18 24.36 31.0226 23.504 31.0653 22.6462C31.0273 21.3631 30.6405 20.1141 29.946 19.032C29.5874 18.6475 29.3147 18.1919 29.1455 17.6952C28.9764 17.1985 28.9148 16.6718 28.9647 16.1498C29.164 14.9908 29.164 13.847 29.3326 12.688C29.4389 10.5223 29.04 8.36148 28.1673 6.3745C28.1673 6.3745 27.094 4.4835 26.1433 4.95625C24.4507 3.8904 22.4834 3.33603 20.4802 3.36039C18.477 3.38475 16.5239 3.98681 14.858 5.0935C14.858 5.0935 -7.09935 19.0473 12.696 45.8568C12.098 49.3338 14.2293 52.9175 15.8853 55.2965" fill="#005D86"/>
<path d="M26.45 20.8926L23.4753 7.41157C23.4753 7.41157 21.7273 2.22657 17.1273 8.76882L16.3607 7.76232C12.1287 13.7251 6.39398 20.8773 7.66665 28.6243C7.85176 30.0543 8.34827 31.4268 9.12156 32.6463C9.89485 33.8658 10.9263 34.9028 12.144 35.6851C13.9384 36.9244 16.1108 37.5033 18.2878 37.3225C20.4649 37.1416 22.5106 36.2121 24.0733 34.6938C26.4653 32.7113 28.4126 28.6853 26.45 20.8926Z" fill="white"/>
<path fill-rule="evenodd" clip-rule="evenodd" d="M29.9153 19.1083C29.9153 19.1083 44.114 16.9123 55.0313 25.681C55.0313 25.681 44.758 12.2763 28.382 14.762C28.3973 14.762 27.2167 18.056 29.9153 19.1083Z" fill="#F19320"/>
<path d="M55.0313 25.6811C55.3199 22.222 54.4404 18.766 52.532 15.86C52.3786 15.6618 51.198 18.2238 51.1826 18.4526C51.1199 19.5211 51.3817 20.5838 51.934 21.5026C52.716 22.9361 54.6173 24.1103 55.0006 25.6505" fill="#E95253"/>
<path d="M1.53333 45.0486C3.54029 45.8082 5.7302 45.9516 7.81999 45.4603C10.7487 45.8568 12.282 46.7718 15.778 47.1683C20.056 47.1683 24.3033 46.7108 28.5507 46.3143C29.9307 46.1923 32.9973 46.0246 34.1627 47.1073C34.8373 47.7326 34.638 49.4253 34.6533 50.3098C32.1186 49.3486 29.4498 48.7828 26.7413 48.6323C23.6747 48.6323 20.5007 48.7696 17.388 48.7391C15.2648 48.7453 13.1454 48.5616 11.0553 48.1901C9.10799 47.8241 7.19133 47.3208 5.24399 46.9243C3.83333 46.6193 2.11599 46.3753 1.53333 45.0486Z" fill="#9B5F48"/>
<path d="M28.8727 47.7935C28.8727 48.2815 28.4433 49.3185 28.0447 49.3185C27.646 49.3185 27.2167 48.2967 27.2167 47.7935V46.0702C27.2167 45.5822 27.5233 45.0942 27.922 45.0942C28.1631 45.1309 28.3849 45.247 28.5517 45.424C28.7185 45.601 28.8208 45.8286 28.842 46.0702L28.8727 47.7935Z" fill="#969595"/>
<path d="M27.2167 48.0375C27.2167 48.4187 26.91 49.2117 26.588 49.2117C26.266 49.2117 25.9594 48.4187 25.9594 48.0375V46.6802C25.9594 46.299 26.1894 45.9177 26.5114 45.9177C26.6957 45.9462 26.8643 46.0381 26.9875 46.1774C27.1108 46.3168 27.181 46.4947 27.186 46.6802L27.2167 48.0375Z" fill="#838383"/>
<path d="M12.006 47.7935C12.006 48.2815 12.4353 49.3185 12.834 49.3185C13.2326 49.3185 13.662 48.2967 13.662 47.7935V46.0702C13.662 45.5822 13.3553 45.0942 12.9566 45.0942C12.7155 45.1309 12.4938 45.247 12.327 45.424C12.1601 45.601 12.0579 45.8286 12.0366 46.0702L12.006 47.7935Z" fill="#969595"/>
<path d="M13.662 48.0375C13.662 48.4187 13.9687 49.2117 14.2907 49.2117C14.6127 49.2117 14.9193 48.4187 14.9193 48.0375V46.6802C14.9193 46.299 14.6893 45.9177 14.3673 45.9177C14.1829 45.9462 14.0144 46.0381 13.8911 46.1774C13.7679 46.3168 13.6976 46.4947 13.6927 46.6802L13.662 48.0375Z" fill="#838383"/>
<path d="M29.578 14.4571C29.946 13.5878 30.6207 10.8886 28.75 6.23735C28.4127 5.5206 27.5693 3.85835 25.7753 4.71235C25.5147 5.10885 29.0107 7.2896 28.29 14.9756C28.29 14.9756 27.3853 18.1933 29.9153 19.0931C29.5388 18.3019 29.345 17.4369 29.348 16.5616C29.2944 15.852 29.3724 15.1387 29.578 14.4571ZM29.4093 14.7621C29.4093 14.7621 29.4093 14.7621 29.4247 14.7621H29.4093Z" fill="#003B55"/>
<path d="M26.542 11.6205C27.2166 15.2195 25.4073 17.263 21.8193 17.3087C19.0593 17.3087 15.042 16.7292 14.6587 13.3742C14.3367 10.4615 16.192 6.51173 19.1667 5.62723C23.2913 4.37673 25.898 8.08248 26.5573 11.6205H26.542Z" fill="#F8B829"/>
<path d="M24.3493 11.3611C24.4909 11.7847 24.5208 12.2373 24.4361 12.6757C24.3515 13.114 24.1551 13.5234 23.8659 13.8647C23.5766 14.2059 23.2041 14.4676 22.784 14.6247C22.3639 14.7818 21.9103 14.829 21.4666 14.7619C19.7186 14.7619 17.2806 14.3501 17.1273 12.2304C17.0452 11.2662 17.2726 10.301 17.7768 9.47353C18.281 8.64602 19.036 7.99879 19.9333 7.62488C22.402 6.93863 23.9353 9.14988 24.3033 11.3001L24.3493 11.3611Z" fill="#005D86"/>
<path fill-rule="evenodd" clip-rule="evenodd" d="M23 10.9039C23 11.4721 22.773 12.0171 22.369 12.4189C21.965 12.8207 21.417 13.0465 20.8457 13.0465C20.2743 13.0465 19.7264 12.8207 19.3223 12.4189C18.9183 12.0171 18.6913 11.4721 18.6913 10.9039C18.6913 10.3356 18.9183 9.79061 19.3223 9.38879C19.7264 8.98697 20.2743 8.76123 20.8457 8.76123C21.417 8.76123 21.965 8.98697 22.369 9.38879C22.773 9.79061 23 10.3356 23 10.9039Z" fill="#151410"/>
<path fill-rule="evenodd" clip-rule="evenodd" d="M21.1446 9.54658C21.1446 9.92783 20.8073 9.54658 20.8073 9.54658C20.8073 9.54658 21.1446 9.15008 21.1446 9.54658Z" fill="white"/>
<path fill-rule="evenodd" clip-rule="evenodd" d="M19.9333 9.5314C19.7186 9.5314 19.6726 9.76015 19.642 10.0042C19.5842 10.026 19.532 10.0605 19.4894 10.1051C19.4467 10.1497 19.4146 10.2032 19.3955 10.2617C19.3764 10.3202 19.3707 10.3823 19.3789 10.4432C19.387 10.5042 19.4088 10.5626 19.4426 10.6142C19.4426 10.6142 20.4853 9.63815 20.562 9.69915C20.4749 9.62879 20.374 9.57748 20.2656 9.54857C20.1573 9.51966 20.0441 9.51382 19.9333 9.5314Z" fill="white"/>
<path d="M54.2033 44.7131C54.3242 44.7103 54.4442 44.7333 54.5553 44.7807C54.6665 44.8281 54.766 44.8986 54.8473 44.9876L56.6567 46.9091C53.912 50.3861 48.6527 51.1639 44.6353 49.6846C42.6383 48.8725 40.9337 47.4807 39.7439 45.6907C38.5541 43.9007 37.9343 41.7957 37.9653 39.6501C37.8002 37.4764 38.2858 35.3026 39.3609 33.4029C40.436 31.5032 42.0525 29.9626 44.0067 28.9751C46.0232 28.0417 48.2722 27.7217 50.471 28.0555C52.6698 28.3892 54.7205 29.3617 56.3653 30.8509L54.832 32.9249C54.004 34.1144 52.7313 32.8029 51.8727 32.3911C50.5987 31.8071 49.1782 31.6159 47.794 31.8421C46.3732 32.1344 45.0938 32.8964 44.1638 34.004C43.2339 35.1116 42.7084 36.4996 42.6727 37.9421C42.4469 39.309 42.5794 40.7107 43.0576 42.0117C43.5357 43.3127 44.3432 44.469 45.402 45.3689C46.6119 46.175 48.052 46.5691 49.5062 46.4921C50.9604 46.4151 52.3503 45.8712 53.4673 44.9419C53.68 44.7858 53.9392 44.7053 54.2033 44.7131Z" fill="white"/>
<path d="M62.8666 27.6177V50.0962H58.65V27.6177H62.8666Z" fill="white"/>
<path d="M70.6253 34.5566V50.1116H66.4547V34.5566H70.6253Z" fill="white"/>
<path d="M71.1313 30.0426C71.1313 33.2908 65.9487 33.3061 65.9487 30.0426C65.9487 26.7791 71.1313 26.7791 71.1313 30.0426Z" fill="white"/>
<path d="M85.5446 38.0184C84.8853 38.9029 84.18 38.3539 83.444 38.0184C82.5367 37.5089 81.4754 37.3411 80.454 37.5457C78.338 38.0184 77.7246 40.1687 77.6633 42.1207C77.602 44.0727 78.016 46.2992 79.948 47.0769C80.4403 47.264 80.9654 47.3509 81.4922 47.3326C82.0189 47.3143 82.5366 47.191 83.0146 46.9702C83.766 46.6194 84.8393 45.2927 85.6213 46.3144L86.8173 47.8394C85.7368 48.9777 84.3498 49.7828 82.8218 50.1587C81.2939 50.5346 79.6894 50.4653 78.2 49.9592C76.7319 49.3718 75.4826 48.3472 74.6233 47.0257C73.764 45.7042 73.337 44.1506 73.4006 42.5782C73.2575 40.9727 73.6244 39.3631 74.4496 37.9761C75.2749 36.589 76.5169 35.4944 78.0006 34.8464C79.46 34.2867 81.05 34.1544 82.5826 34.4652C84.1151 34.776 85.5261 35.5169 86.6486 36.6002L85.5446 38.0184Z" fill="white"/>
<path d="M93.0733 27.6177V40.3819H93.7633C93.9732 40.3918 94.1821 40.348 94.3701 40.2545C94.558 40.161 94.7187 40.0211 94.8366 39.8482L98.2866 35.2732C98.4455 35.0498 98.6574 34.8689 98.9035 34.7465C99.1496 34.6242 99.4223 34.5641 99.6973 34.5717H103.515L99.0533 40.2142C98.7239 40.6636 98.3067 41.0422 97.8266 41.3274C98.2783 41.6693 98.6541 42.1002 98.9306 42.5932L103.761 50.0809H100.004C99.7255 50.1005 99.4469 50.0441 99.1983 49.9178C98.9498 49.7915 98.7406 49.6 98.5933 49.3642L95.0666 43.6607C94.9603 43.4633 94.7966 43.3025 94.5969 43.1991C94.3972 43.0957 94.1708 43.0546 93.9473 43.0812H93.0733V50.0962H88.9333V27.6177H93.0733Z" fill="white"/>
<path d="M109.618 27.6177V40.3819H110.308C110.518 40.3918 110.727 40.348 110.915 40.2545C111.103 40.161 111.263 40.0211 111.381 39.8482L114.831 35.2732C114.99 35.0498 115.202 34.8689 115.448 34.7465C115.694 34.6242 115.967 34.5641 116.242 34.5717H120.06L115.567 40.2447C115.238 40.6941 114.821 41.0727 114.341 41.3579C114.792 41.6998 115.168 42.1307 115.445 42.6237L120.275 50.1114H116.533C116.255 50.131 115.976 50.0746 115.728 49.9483C115.479 49.8219 115.27 49.6305 115.123 49.3947L111.611 43.6759C111.505 43.4786 111.341 43.3177 111.142 43.2143C110.942 43.111 110.716 43.0699 110.492 43.0964H109.618V50.1114H105.432V27.6177H109.618Z" fill="white"/>
<path d="M128.033 54.2749C127.926 54.5415 127.736 54.7669 127.49 54.9178C127.244 55.0688 126.956 55.1374 126.669 55.1136H123.602L126.515 48.8001L120.244 34.4956H123.909C124.157 34.4843 124.402 34.5502 124.611 34.6842C124.82 34.8181 124.982 35.0134 125.074 35.2429L128.049 42.7001C128.263 43.2898 128.447 43.8795 128.601 44.4691C128.785 43.8744 128.999 43.2796 129.229 42.6849L131.989 35.2581C132.081 35.0349 132.239 34.8443 132.441 34.711C132.643 34.5778 132.881 34.5081 133.124 34.5109H136.467L128.033 54.2749Z" fill="white"/>
</svg>
